picto/2nd-class.svg

<svg class="color-immutable" width="24" height="24" viewBox="0 0 24 24" fill="none" xmlns="http://www.w3.org/2000/svg"><g clip-path="url(#a)"><path d="M0 22.5v-21C0 .675.675 0 1.5 0h21c.825 0 1.5.675 1.5 1.5v21c0 .825-.675 1.5-1.5 1.5h-21C.675 24 0 23.325 0 22.5Z" fill="#2D327D"/><path d="M19.931 20.059V24H3.465c0-1.209.198-2.356.594-3.44a8.193 8.193 0 0 1 1.704-2.815 15.368 15.368 0 0 1 1.97-1.759c.751-.568 2.257-1.624 4.519-3.167 1.095-.751 1.861-1.441 2.299-2.072.438-.631.657-1.363.657-2.197 0-.97-.295-1.754-.884-2.353-.589-.599-1.363-.899-2.322-.899-2.356 0-3.571 1.637-3.644 4.91H3.965v-.485c0-2.679.777-4.754 2.33-6.224 1.511-1.439 3.471-2.158 5.88-2.158 2.106 0 3.878.584 5.317 1.751 1.553 1.272 2.33 2.982 2.33 5.129 0 1.876-.62 3.492-1.861 4.848a9.76 9.76 0 0 1-1.134 1.063c-.349.271-1.285.912-2.807 1.923-1.46.991-2.494 1.736-3.104 2.236-.61.5-1.181 1.089-1.712 1.767h10.727v.001Z" fill="#fff"/></g><defs><clipPath id="a"><path fill="#fff" d="M0 0h24v24H0z"/></clipPath></defs></svg>

<svg class="color-immutable" width="24" height="24" viewBox="0 0 24 24" fill="none" xmlns="http://www.w3.org/2000/svg"><path d="M0 22.5V1.5C0 0.675 0.675 0 1.5 0H22.5C23.325 0 24 0.675 24 1.5V22.5C24 23.325 23.325 24 22.5 24H1.5C0.675 24 0 23.325 0 22.5Z" fill="#2D327D"/><path d="M19.931 20.059V24H3.465C3.465 22.791 3.663 21.644 4.059 20.56C4.455 19.476 5.023 18.538 5.763 17.745C6.326 17.141 6.983 16.554 7.733 15.986C8.484 15.418 9.99 14.362 12.252 12.819C13.347 12.068 14.113 11.378 14.551 10.747C14.989 10.116 15.208 9.384 15.208 8.55C15.208 7.58 14.913 6.796 14.324 6.197C13.735 5.598 12.961 5.298 12.002 5.298C9.646 5.298 8.431 6.935 8.358 10.208H3.965C3.965 10 3.965 9.838 3.965 9.723C3.965 7.044 4.742 4.969 6.295 3.499C7.806 2.06 9.766 1.341 12.175 1.341C14.281 1.341 16.053 1.925 17.492 3.092C19.045 4.364 19.822 6.074 19.822 8.221C19.822 10.097 19.202 11.713 17.961 13.069C17.554 13.507 17.176 13.861 16.827 14.132C16.478 14.403 15.542 15.044 14.02 16.055C12.56 17.046 11.526 17.791 10.916 18.291C10.306 18.791 9.735 19.38 9.204 20.058H19.931V20.059Z" fill="white"/></svg>
